public/static/images/projects/drinkee/logo.svg

<svg width="230" height="139" viewBox="0 0 230 139" fill="none" xmlns="http://www.w3.org/2000/svg">
<path d="M35.8882 7.69982C38.4163 3.07827 41.692 0.61561 45.7201 0.316541C57.6691 -0.290945 69.3514 -0.0245853 80.7677 1.12029C92.1787 2.26984 102.997 5.90074 113.217 12.0177C124.806 18.9991 133.245 27.9198 138.544 38.7845C143.105 48.2194 144.96 58.5557 144.114 69.7944C143.516 77.785 140.32 85.6733 134.525 93.4584C128.731 101.234 122.852 107.701 116.899 112.86C110.058 118.819 102.824 123.534 95.1974 127.01C87.445 130.627 79.272 133.094 70.6738 134.412C59.856 136.094 49.1035 136.412 38.4116 135.366C27.7198 134.309 17.1449 133.057 6.69144 131.608C3.32689 131.249 1.30349 130.258 0.616565 128.637C-0.0797075 127.02 -0.187186 125.038 0.298803 122.692C3.47643 106.346 8.23819 86.7432 14.5794 63.8875C20.9207 41.0228 28.0235 22.2936 35.8882 7.69982ZM104.282 69.2525C105.001 64.6306 103.202 60.3082 98.88 56.28C97.1976 54.8971 95.2771 53.5138 93.1229 52.1304C86.6275 48.5184 79.655 46.2332 72.2064 45.2706C70.2254 44.9715 68.328 44.8547 66.5242 44.9154C64.3651 45.1023 62.4494 45.8267 60.767 47.0837C59.9165 47.6818 58.7299 49.9622 57.1968 53.9251C55.6642 57.8875 54.1315 62.2334 52.5989 66.9533C51.0754 71.6635 49.7765 76.0656 48.6922 80.1494C47.608 84.2386 47.1501 86.6453 47.3276 87.3648C47.3884 87.9019 47.5706 88.2946 47.8697 88.5422C50.6966 90.1637 54.0053 91.393 57.7949 92.2248C61.5197 93.0096 65.2718 93.3086 69.0475 93.1219C73.9824 92.9491 79.5058 92.0376 85.6272 90.3926C91.7582 88.7386 96.2909 85.6219 99.2352 81.047C101.763 77.2104 103.445 73.2802 104.282 69.2525Z" fill="#5BCBD0"/>
<path d="M219.018 125.89C218.12 129.918 214.967 133.133 209.562 135.535C204.997 137.694 199.712 138.769 193.707 138.769C186.618 138.769 181.328 137.395 177.839 134.638C174.647 132.236 173.447 129.348 174.234 125.984C175.079 122.32 177.877 119.227 182.624 116.694C187.184 114.18 192.8 112.918 199.467 112.918C206.384 112.918 211.64 114.357 215.24 117.236C218.543 119.755 219.805 122.638 219.018 125.89ZM219.392 95.2541C219.503 96.217 219.56 97.2077 219.56 98.2262C219.493 99.1886 219.291 99.9974 218.946 100.656C218.456 101.441 217.703 102.039 216.68 102.451C215.658 103.114 214.275 103.591 212.533 103.89C209.231 104.614 205.525 104.951 201.411 104.899C197.298 104.838 193.583 104.502 190.271 103.89C186.728 103.357 183.973 101.404 181.991 98.039C180.781 96.2357 179.821 94.0114 179.111 91.3661C178.439 89.5109 177.863 87.1373 177.392 84.2448C177.027 82.2634 176.759 79.8331 176.586 76.9546C176.523 75.7493 176.442 74.5574 176.346 73.3848C176.255 72.2165 176.211 71.0295 176.211 69.8333C176.101 67.7304 176.067 65.4499 176.12 62.9918C176.067 61.908 176.067 60.7814 176.12 59.6088C176.183 58.4405 176.274 57.2818 176.399 56.1322C176.461 54.8141 176.672 52.5336 177.037 49.2907C177.21 47.1225 177.474 44.8374 177.839 42.4309C178.328 38.3467 178.875 34.2438 179.504 30.1316C180.138 26.0194 181.352 21.9539 183.147 17.9258C184.779 13.8416 187.002 10.5378 189.819 8.01904C191.567 6.38819 194.84 5.0377 199.655 3.96291C203.787 3.17785 208.328 2.87411 213.263 3.04701C218.058 3.29935 221.989 3.93488 225.056 4.95359C228.368 6.14987 229.962 7.65457 229.842 9.45832C229.775 9.99573 229.563 10.8929 229.203 12.15C229.026 12.636 228.579 13.6593 227.859 15.2154C224.855 21.4726 222.867 28.5801 221.898 36.5429C220.933 44.4963 220.069 51.8093 219.301 58.4871C218.447 64.609 217.962 70.7491 217.842 76.9176C217.727 83.0765 218.24 89.1888 219.392 95.2541Z" fill="#5BCBD0"/>
</svg>

<svg xmlns="http://www.w3.org/2000/svg" width="230" height="139" fill="none"><path fill="#5BCBD0" d="M35.888 7.7Q39.68.766 45.72.317q17.924-.913 35.048.803 17.117 1.723 32.449 10.898c11.589 6.981 20.028 15.902 25.327 26.767q6.84 14.15 5.57 31.01-.897 11.985-9.589 23.663c-5.794 7.776-11.673 14.243-17.626 19.402q-10.261 8.937-21.702 14.15-11.627 5.425-24.523 7.402-16.225 2.523-32.262.954a815 815 0 0 1-31.72-3.758q-5.047-.539-6.075-2.971-1.046-2.426-.318-5.945c3.177-16.346 7.94-35.949 14.28-58.804Q24.091 29.59 35.89 7.7m68.394 61.552q1.08-6.93-5.402-12.972-2.524-2.074-5.757-4.15-9.744-5.417-20.917-6.86a31 31 0 0 0-5.682-.355c-2.159.187-4.075.912-5.757 2.169-.85.598-2.037 2.878-3.57 6.841q-2.299 5.946-4.598 13.028a259 259 0 0 0-3.907 13.196c-1.084 4.09-1.542 6.496-1.364 7.216q.092.806.542 1.177 4.24 2.434 9.925 3.683a43.9 43.9 0 0 0 11.252.897q7.4-.26 16.58-2.73c6.131-1.653 10.664-4.77 13.608-9.345q3.792-5.755 5.047-11.794M219.018 125.89q-1.348 6.042-9.456 9.645c-4.565 2.159-9.85 3.234-15.855 3.234-7.089 0-12.379-1.374-15.868-4.131-3.192-2.402-4.392-5.29-3.605-8.654.845-3.664 3.643-6.757 8.39-9.29 4.56-2.514 10.176-3.776 16.843-3.776q10.374 0 15.773 4.318 4.956 3.777 3.778 8.654m.374-30.636q.167 1.445.168 2.972-.099 1.443-.614 2.43-.733 1.177-2.266 1.795c-1.022.663-2.405 1.14-4.147 1.439q-4.952 1.086-11.122 1.009-6.17-.091-11.14-1.009c-3.543-.533-6.298-2.486-8.28-5.851q-1.815-2.705-2.88-6.673c-.672-1.855-1.248-4.229-1.719-7.121q-.547-2.973-.806-7.29a122 122 0 0 0-.24-3.57 46 46 0 0 1-.135-3.552 93 93 0 0 1-.091-6.841 36 36 0 0 1 0-3.383q.093-1.753.279-3.477.092-1.977.638-6.841c.173-2.168.437-4.454.802-6.86a380 380 0 0 1 1.665-12.3c.634-4.112 1.848-8.177 3.643-12.205q2.447-6.127 6.672-9.907c1.748-1.63 5.021-2.981 9.836-4.056 4.132-.785 8.673-1.089 13.608-.916q7.192.378 11.793 1.907c3.312 1.196 4.906 2.7 4.786 4.504q-.1.807-.639 2.692-.265.73-1.344 3.065-4.507 9.385-5.961 21.328a3553 3553 0 0 0-2.597 21.944 155 155 0 0 0-1.459 18.43 89 89 0 0 0 1.55 18.337"/></svg>
